build/img/svg/twitter.svg

<svg width="18" height="14" viewBox="0 0 18 14" fill="none" xmlns="http://www.w3.org/2000/svg">
<path fill-rule="evenodd" clip-rule="evenodd" d="M17.0328 1.84041C16.4253 2.11761 15.7726 2.30417 15.0877 2.38898C15.7868 1.95807 16.3239 1.27594 16.5767 0.46342C15.9222 0.862259 15.1973 1.15191 14.4257 1.308C13.8081 0.631966 12.9276 0.210602 11.9535 0.210602C10.0832 0.210602 8.56631 1.76886 8.56631 3.69017C8.56631 3.96313 8.59598 4.22867 8.65402 4.48334C5.83853 4.33759 3.3424 2.95159 1.67204 0.847419C1.38053 1.36154 1.2135 1.95887 1.2135 2.59648C1.2135 3.80359 1.81147 4.86853 2.72005 5.49303C2.16541 5.47448 1.64276 5.31812 1.18615 5.05709V5.10081C1.18615 6.7876 2.35476 8.19347 3.90258 8.51347C3.61882 8.59297 3.31957 8.63537 3.01181 8.63537C2.79357 8.63537 2.581 8.61417 2.37462 8.57309C2.80543 9.95591 4.05659 10.9619 5.53864 10.99C4.37931 11.9228 2.91868 12.4793 1.33113 12.4793C1.05768 12.4793 0.788618 12.4634 0.523682 12.4308C2.02249 13.4183 3.80327 13.9944 5.71599 13.9944C11.946 13.9944 15.3531 8.69155 15.3531 4.09365C15.3531 3.94259 15.3498 3.79286 15.3433 3.64313C16.0053 3.15286 16.5798 2.53937 17.0338 1.84107" fill="#B6BAC7"/>
</svg>

<svg width="18" height="14" fill="none" xmlns="http://www.w3.org/2000/svg"><path fill-rule="evenodd" clip-rule="evenodd" d="M17.033 1.84a6.642 6.642 0 01-1.945.549A3.477 3.477 0 0016.577.463a6.673 6.673 0 01-2.151.845A3.34 3.34 0 0011.953.211c-1.87 0-3.387 1.558-3.387 3.48 0 .272.03.538.088.792C5.839 4.338 3.342 2.952 1.672.847a3.536 3.536 0 00-.458 1.75c0 1.207.597 2.272 1.506 2.896a3.308 3.308 0 01-1.534-.436v.044c0 1.687 1.169 3.092 2.717 3.412a3.3 3.3 0 01-1.528.06c.43 1.383 1.682 2.389 3.164 2.417a6.686 6.686 0 01-5.015 1.44 9.402 9.402 0 005.192 1.564c6.23 0 9.637-5.302 9.637-9.9a9.59 9.59 0 00-.01-.45 6.976 6.976 0 001.69-1.803" fill="#B6BAC7"/></svg>
